X:1
T:Title
%%score { ( 1 3 ) | ( 2 4 ) }
L:1/8
M:2/4
K:Bb
V:1 treble nm="Grand Piano"
V:3 treble 
V:2 bass 
V:4 bass 
V:1
 z2 z[Q:1/4=82] [B,D]/[CE]/ | [DF]>[DF] [EG]>[DF] | [DF] [DFB]2 B/B/ | B>B c>c |[M:3/8] [DB]3 | %5
[M:1/8] [B,D]/[CE]/ |[M:2/4] [DF]>[DF] [EG]>[DF] | [DF] [DB]2 [DB]/[Fd]/ | [=Ec]>[EB] [EG]>[EA] | %9
[M:3/8] F3 |[M:1/4] FG |[M:2/4] A>A B>B | %12
[M:19/32] (7:8:13c/4-c3/64c/4-c3/64-c3/2-c/4-c/32F-F3/8- F3/32-F/64F/4-F3/64 | %13
[M:2/4] (5:4:5[DF]2 [DF]/ [DB]/-[DB]3/2[Ec]/ |[M:1/4] [Fd]2 | (3:2:2[Fd]2 [Fc] | %16
[M:2/4] (5:4:4[B,GB]2 [B,EG]/ [B,EG][EGB]3/2 | (7:8:5[DFB]/[B,DF]-[B,DF]/4 [B,DF]3/4[DFB] | %18
 (7:8:6A/A-A/4 c/4-cA/ |[M:3/8] B3- |[M:1/8] B/4 z/4 [CE]/ | %21
[M:2/4] (5:4:5[DF]2 [DF]/ [EG]/-[EG]3/2[DF]/ | (3[DF] [DFB]3 [DFB]2 | (5:4:5B2 B/ c/-c3/2c/ | %24
[M:1/4] d2 | (3:2:2[Fd]2 [Fc] |[M:2/4] (5:4:4[GB]2 G/ GB3/2 | (7:8:5[DB]/[DF]-[DF]/4 [DF]3/4[DFB] | %28
 (7:8:6A/A-A/4 c/4-cA/ |[M:9/16] [DB]4- [DB]/ |] %30
V:2
 z2 z [B,,F,] | [B,,B,]>[B,,B,] [B,,B,]>[B,,B,] | [B,,B,] B,,2[K:treble] [B,DF]/[B,DF]/ | %3
 [G,DG]>[K:bass][G,B,D] [F,A,E]>[F,A,E] |[M:3/8] [B,,B,]3 |[M:1/8] [B,,F,]/[B,,F,]/ | %6
[M:2/4] [B,,B,]>[B,,B,] [B,,B,]>[B,,B,] | [B,,B,] [B,,F,]2 [B,,F,]/[B,,B,]/ | %8
 [C,G,]>[C,C] [C,B,]>[C,C] |[M:3/8] [F,A,]3 |[M:1/4] [F,A,][F,B,F] | %11
[M:2/4] [F,CF]>[F,CF] [F,DF]>[F,DF] | %12
[M:19/32] (7:8:13[F,EF]/4-[F,EF]3/64[F,EF]/4-[F,EF]3/64-[F,EF]3/2-[F,EF]/4-[F,EF]/32[F,A,E]-[F,A,E]3/8- [F,A,E]3/32-[F,A,E]/64[F,A,E]/4-[F,A,E]3/64 | %13
[M:2/4] (5:4:5[B,,B,]2 [B,,B,]/ [B,,B,]/-[B,,B,]3/2[B,,B,]/ |[M:1/4] [B,,B,]2 | %15
 (3:2:2[B,,B,]2 [D,B,] |[M:2/4] (5:4:4E,2 E,/ E,E,3/2 | (7:8:5B,,/B,,-B,,/4 B,,3/4B,, | %18
 (7:8:6[F,CE]/[F,CE]-[F,CE]/4 [F,A,E]/4-[F,A,E][F,CE]/ |[M:3/8] B,3- | %20
[M:1/8] [F,-B,]/4F,/4-[B,,-F,B,-]/4[B,,B,]/4 | %21
[M:2/4] (5:4:5[B,,B,]2 [B,,B,]/ [B,,B,]/-[B,,B,]3/2[B,,B,]/ | (3[B,,B,] B,,3 B,,2 | %23
 (5:4:5[G,DG]2 [G,B,D]/ [F,A,F]/-[F,A,F]3/2[F,A,F]/ |[M:1/4] [B,F]2 | (3:2:2[B,,B,]2 [D,B,] | %26
[M:2/4] (5:4:4[E,B,]2 [E,B,E]/ [E,B,E][E,G,E]3/2 | (7:8:5[B,,F,]/[B,,B,]-[B,,B,]/4 [B,,B,]3/4B,, | %28
 (7:8:6[F,CE]/[F,CE]-[F,CE]/4 [F,A,E]/4-[F,A,E][F,CE]/ |[M:9/16] [B,,B,]4- [B,,B,]/ |] %30
V:3
 x4 | x4 | x4 | x4 |[M:3/8] x3 |[M:1/8] x |[M:2/4] x4 | x4 | x4 |[M:3/8] x3 |[M:1/4] x2 | %11
[M:2/4] x4 |[M:19/32] x143/30 |[M:2/4] x4 |[M:1/4] x2 | x2 |[M:2/4] x4 | x4 | x4 |[M:3/8] D3 | %20
[M:1/8] [B,D]3/4 z/4 |[M:2/4] x4 | x4 | x4 |[M:1/4] x2 | x2 |[M:2/4] x4 | x4 | x4 |[M:9/16] x9/2 |] %30
V:4
 x4 | x4 | x3[K:treble] x | x3/2[K:bass] x5/2 |[M:3/8] x3 |[M:1/8] x |[M:2/4] x4 | x4 | x4 | %9
[M:3/8] x3 |[M:1/4] x2 |[M:2/4] x4 |[M:19/32] x143/30 |[M:2/4] x4 |[M:1/4] x2 | x2 |[M:2/4] x4 | %17
 x4 | x4 |[M:3/8] B,,3 |[M:1/8] B,,/ z/ |[M:2/4] x4 | x4 | x4 |[M:1/4] x2 | x2 |[M:2/4] x4 | x4 | %28
 x4 |[M:9/16] x9/2 |] %30

